images/company-info.svg

<svg width="20" height="20" viewBox="0 0 20 20" fill="none" xmlns="http://www.w3.org/2000/svg">
<g id="icon-20">
<circle id="Ellipse 179" cx="10" cy="10" r="7.5" stroke="#9797AF"/>
<path id="i" d="M9.88867 7.58691C9.62826 7.58691 9.41504 7.51042 9.24902 7.35742C9.08301 7.20117 9 7.01074 9 6.78613C9 6.55501 9.08301 6.36621 9.24902 6.21973C9.41504 6.07324 9.62826 6 9.88867 6C10.1523 6 10.3656 6.07324 10.5283 6.21973C10.6943 6.36621 10.7773 6.55501 10.7773 6.78613C10.7773 7.02051 10.6943 7.21257 10.5283 7.3623C10.3656 7.51204 10.1523 7.58691 9.88867 7.58691ZM10.6504 13.3779H9.10742V8.37793H10.6504V13.3779Z" fill="#9797AF"/>
</g>
</svg>

<svg width="20" height="20" fill="none" xmlns="http://www.w3.org/2000/svg"><circle cx="10" cy="10" r="7.5" stroke="#9797AF"/><path d="M9.889 7.587a.907.907 0 0 1-.64-.23.755.755 0 0 1-.249-.57.72.72 0 0 1 .249-.567c.166-.147.38-.22.64-.22.263 0 .477.073.64.22a.72.72 0 0 1 .248.566.74.74 0 0 1-.249.576c-.162.15-.376.225-.64.225zm.761 5.79H9.107v-5h1.543v5z" fill="#9797AF"/></svg>
